X: 28747
T: My Heather Hills
R: jig
M: 6/8
K: Dmajor
E|FAA A2 f|eBB B2 A|FAB def|agf e2 E|
FAA A2 f|eBB B2 A|FAB def|efe d2:|
f|a2 b agf|g2 a gfe|fef agf|fed e2 f|
a2 b agf|g2 a gfe|fef age|edc d2 f|
a2 b agf|g2 a gfe|fef agf|fed e2 E|
FAA A2 f|eBB B2 A|FAB def|efe d2|

